X:154
T: HORCH WIE SCHALLTS DORTEN SO LIEBLICH HERVOR
N: B0184
O: Europa, Mitteleuropa, Deutschland
R: Natur - Lied
M: 3/8
L: 1/16
K: F
 | F3FF2 | c2c2c2 | A3AA2 | G4z2 |
GGG2z2 | GGG2z2 |
A3AA2 | G2A2=B2 | c6- | c2z4 |
G2G2G2 | B2G2E2 | F2F2A2 | c4z2 |
G2G2G2 | B2G2E2 | F2F2A2 | c4z2 |
ccc2z2 | ccc2z2 |
f2d2B2 | A3BG2 | F6- | F2z4

@@@ Tune index: 1957
